src/activities/smallnumbers/resource/dice8.svg

<?xml version="1.0" encoding="UTF-8" standalone="no"?>
<!-- Created with Inkscape (http://www.inkscape.org/) -->

<svg
   xmlns:dc="http://purl.org/dc/elements/1.1/"
   xmlns:cc="http://creativecommons.org/ns#"
   xmlns:rdf="http://www.w3.org/1999/02/22-rdf-syntax-ns#"
   xmlns:svg="http://www.w3.org/2000/svg"
   xmlns="http://www.w3.org/2000/svg"
   xmlns:sodipodi="http://sodipodi.sourceforge.net/DTD/sodipodi-0.dtd"
   xmlns:inkscape="http://www.inkscape.org/namespaces/inkscape"
   width="97.366165"
   height="98.645958"
   id="svg5070"
   sodipodi:version="0.32"
   inkscape:version="0.91 r13725"
   sodipodi:docname="dice8.svg"
   inkscape:export-filename="/home/franck/Gcompris/gartoon/level8.png"
   inkscape:export-xdpi="8.5762272"
   inkscape:export-ydpi="8.5762272"
   inkscape:output_extension="org.inkscape.output.svg.inkscape"
   version="1.0">
  <defs
     id="defs3" />
  <sodipodi:namedview
     inkscape:document-units="px"
     id="base"
     pagecolor="#ffffff"
     bordercolor="#666666"
     borderopacity="1.0"
     inkscape:pageopacity="0.0"
     inkscape:pageshadow="2"
     inkscape:zoom="3.5899113"
     inkscape:cx="50.662467"
     inkscape:cy="49.296938"
     inkscape:current-layer="layer1"
     inkscape:window-width="936"
     inkscape:window-height="1053"
     inkscape:window-x="940"
     inkscape:window-y="0"
     showgrid="false"
     fit-margin-top="0"
     fit-margin-left="0"
     fit-margin-right="0"
     fit-margin-bottom="0"
     inkscape:window-maximized="0" />
  <metadata
     id="metadata4">
    <rdf:RDF>
      <cc:Work
         rdf:about="">
        <dc:format>image/svg+xml</dc:format>
        <dc:type
           rdf:resource="http://purl.org/dc/dcmitype/StillImage" />
        <dc:title></dc:title>
        <dc:date>2015</dc:date>
        <dc:creator>
          <cc:Agent>
            <dc:title>Timothée Giet</dc:title>
          </cc:Agent>
        </dc:creator>
        <cc:license
           rdf:resource="http://creativecommons.org/licenses/by-sa/4.0/" />
      </cc:Work>
      <cc:License
         rdf:about="http://creativecommons.org/licenses/by-sa/4.0/">
        <cc:permits
           rdf:resource="http://creativecommons.org/ns#Reproduction" />
        <cc:permits
           rdf:resource="http://creativecommons.org/ns#Distribution" />
        <cc:requires
           rdf:resource="http://creativecommons.org/ns#Notice" />
        <cc:requires
           rdf:resource="http://creativecommons.org/ns#Attribution" />
        <cc:permits
           rdf:resource="http://creativecommons.org/ns#DerivativeWorks" />
        <cc:requires
           rdf:resource="http://creativecommons.org/ns#ShareAlike" />
      </cc:License>
    </rdf:RDF>
  </metadata>
  <g
     inkscape:label="Layer 1"
     inkscape:groupmode="layer"
     id="layer1"
     transform="translate(-12.486047,-19.551689)">
    <path
       inkscape:connector-curvature="0"
       sodipodi:nodetypes="csscssssssssc"
       id="rect5098"
       d="m 18.746852,46.113124 c 0,0 11.696722,-14.741442 22.659989,-21.414233 6.804058,-4.141288 15.951038,-5.872433 23.923185,-4.690736 14.380137,2.131543 34.676394,10.228299 34.676394,10.228299 5.70412,1.631559 10.45059,5.041111 9.66764,13.386205 -1.34147,14.297736 -4.11664,24.915491 -8.0993,38.096533 -1.696555,5.614924 -3.953925,11.621796 -5.595723,15.80698 -1.916507,4.885448 -4.419309,9.223128 -5.990508,12.688738 -2.413105,5.32259 -9.215487,7.95988 -15.212331,7.89083 C 65.919957,118.00377 48.812393,113.37528 35.294143,106.64122 29.201959,103.60642 24.940691,99.851513 23.157008,94.884115 19.10489,83.599338 12.585691,74.120555 12.576709,61.768421 c -0.0049,-6.749316 2.571345,-10.760615 6.170143,-15.655297 z"
       style="fill:#991919;fill-opacity:1;fill-rule:evenodd;stroke:none;stroke-width:0.14504871pt;stroke-linecap:butt;stroke-linejoin:miter;stroke-opacity:1" />
    <path
       inkscape:connector-curvature="0"
       sodipodi:nodetypes="csscccsss"
       id="rect5076"
       d="m 62.787173,24.114808 c 14.578498,1.618665 22.53501,5.633913 34.703771,9.749147 6.328546,2.140188 11.689496,6.643208 5.395126,17.431564 L 85.445337,81.188366 c -3.80152,6.570316 -14.536053,7.869832 -21.313309,5.984167 L 26.846287,73.051347 C 20.069029,71.165681 13.254424,61.845653 17.252873,55.297502 22.896721,46.054725 32.213782,36.711506 41.127754,28.747331 46.547902,23.904711 55.872801,23.3471 62.787173,24.114808 Z"
       style="fill:#e82727;fill-opacity:1;fill-rule:evenodd;stroke:none" />
    <path
       inkscape:connector-curvature="0"
       sodipodi:nodetypes="cscsccsss"
       id="path6555"
       d="M 65.906785,115.45194 C 53.602438,113.11943 45.416905,108.52488 35.793944,104.19495 30.485239,101.80625 26.09984,96.168221 24.89047,91.730946 L 20.289182,78.180295 c -2.212432,-6.515546 1.55057,-6.332306 8.230006,-3.586737 l 36.551404,13.618433 c 5.696359,1.755884 10.580104,5.862698 10.586612,12.815849 0.003,3.18659 -0.04823,5.51888 -0.525042,9.83563 -0.315671,2.85785 -3.164792,5.73738 -9.225377,4.58847 z"
       style="fill:#c21919;fill-opacity:1;fill-rule:evenodd;stroke:none" />
    <path
       inkscape:connector-curvature="0"
       sodipodi:nodetypes="sssssssss"
       id="path7283"
       d="m 93.569013,95.968627 c -1.681591,3.500322 -3.475893,8.834313 -5.783561,13.087123 -3.244697,5.97967 -9.789841,7.0191 -9.48188,2.86387 l 0.736375,-9.93563 c 0.513839,-6.933072 4.224366,-14.656364 6.360452,-18.188085 5.807803,-9.602381 12.938736,-20.285614 18.183681,-28.758612 2.06459,-3.335242 2.50471,0.536835 1.77361,3.151723 l -6.404206,22.905561 c -1.210917,4.331022 -3.949183,11.88642 -5.384471,14.87405 z"
       style="fill:#c21919;fill-opacity:1;fill-rule:evenodd;stroke:none" />
    <path
       style="fill:#ecc9c0;fill-opacity:1;fill-rule:evenodd;stroke:none"
       d="M 84.462891 52.796875 C 84.384346 52.803474 84.30109 52.824029 84.212891 52.859375 A 1.3153592 3.6045773 18.429889 0 0 84.197266 52.861328 A 1.3153592 3.6045773 18.429889 0 0 81.988281 56.400391 A 1.3153592 3.6045773 18.429889 0 0 82.34375 59.716797 L 82.537109 59.660156 C 82.594021 59.650089 82.653612 59.633108 82.714844 59.609375 L 82.880859 59.560547 A 1.3153592 3.6045773 18.429889 0 0 83.070312 59.416016 C 83.833227 58.889837 84.731968 57.649644 85.080078 56.5 C 85.648232 54.623651 85.405425 52.717682 84.462891 52.796875 z M 17.460938 58.478516 C 15.801116 58.435234 14.442755 59.284842 14.519531 60.917969 A 4.7374523 2.7915279 33.312771 0 0 14.513672 60.976562 A 4.7374523 2.7915279 33.312771 0 0 18.332031 65.533203 A 4.7374523 2.7915279 33.312771 0 0 22.925781 64.740234 L 22.931641 64.347656 C 22.943177 64.222449 22.944463 64.092106 22.9375 63.957031 L 22.941406 63.623047 A 4.7374523 2.7915279 33.312771 0 0 22.824219 63.226562 C 22.437442 61.644742 21.156739 59.787851 19.763672 59.080078 C 19.004809 58.694525 18.20267 58.497857 17.460938 58.478516 z M 51.03125 71.152344 C 49.371428 71.109062 48.013068 71.95867 48.089844 73.591797 A 4.7374523 2.7915279 33.312771 0 0 48.083984 73.650391 A 4.7374523 2.7915279 33.312771 0 0 51.900391 78.205078 A 4.7374523 2.7915279 33.312771 0 0 56.496094 77.414062 L 56.501953 77.015625 C 56.513086 76.892171 56.51462 76.763876 56.507812 76.630859 L 56.511719 76.296875 A 4.7374523 2.7915279 33.312771 0 0 56.396484 75.902344 C 56.01073 74.319791 54.728048 72.462185 53.333984 71.753906 C 52.575121 71.368353 51.772982 71.171685 51.03125 71.152344 z M 22.976562 76.707031 C 21.316741 76.66375 19.95838 77.513357 20.035156 79.146484 A 4.7374523 2.7915279 33.312771 0 0 20.029297 79.205078 A 4.7374523 2.7915279 33.312771 0 0 23.845703 83.759766 A 4.7374523 2.7915279 33.312771 0 0 28.441406 82.96875 L 28.447266 82.570312 C 28.458398 82.446858 28.459933 82.318564 28.453125 82.185547 L 28.457031 81.851562 A 4.7374523 2.7915279 33.312771 0 0 28.341797 81.457031 C 27.956043 79.874479 26.671407 78.016872 25.277344 77.308594 C 24.518481 76.92304 23.718295 76.726373 22.976562 76.707031 z M 74.898438 79.132812 C 74.823511 79.139108 74.743871 79.159 74.660156 79.191406 C 74.656114 79.192971 74.6525 79.191731 74.648438 79.193359 A 1.3153592 3.6045773 18.429889 0 0 74.632812 79.195312 A 1.3153592 3.6045773 18.429889 0 0 72.423828 82.736328 A 1.3153592 3.6045773 18.429889 0 0 72.779297 86.052734 L 72.972656 85.996094 C 73.029568 85.986026 73.089159 85.969045 73.150391 85.945312 L 73.316406 85.896484 A 1.3153592 3.6045773 18.429889 0 0 73.505859 85.751953 C 74.268774 85.225775 75.167515 83.985584 75.515625 82.835938 C 76.083779 80.95959 75.840972 79.053619 74.898438 79.132812 z M 52.705078 87.425781 C 51.045257 87.3825 49.684943 88.232109 49.761719 89.865234 A 4.7374523 2.7915279 33.312771 0 0 49.755859 89.923828 A 4.7374523 2.7915279 33.312771 0 0 53.574219 94.480469 A 4.7374523 2.7915279 33.312771 0 0 58.169922 93.6875 L 58.175781 93.277344 C 58.18536 93.164745 58.184964 93.048267 58.179688 92.927734 L 58.185547 92.570312 A 4.7374523 2.7915279 33.312771 0 0 58.070312 92.177734 C 57.685176 90.594741 56.400522 88.735925 55.005859 88.027344 C 54.246996 87.641791 53.44681 87.445122 52.705078 87.425781 z "
       transform="translate(12.486047,19.551689)"
       id="path1340" />
    <path
       style="fill:#f2dbd4;fill-opacity:1;fill-rule:evenodd;stroke:none"
       d="M 44.533203 8.71875 C 43.898194 8.7392624 43.300505 8.83072 42.78125 9.0058594 C 39.400304 10.14622 37.632876 13.46467 40.087891 15.505859 A 3.6704487 6.2181149 80.133043 0 0 40.167969 15.589844 A 3.6704487 6.2181149 80.133043 0 0 48.099609 16.181641 A 3.6704487 6.2181149 80.133043 0 0 51.269531 11.205078 L 50.867188 10.835938 C 50.754912 10.717835 50.630029 10.604813 50.494141 10.494141 L 50.148438 10.177734 A 3.6704487 6.2181149 80.133043 0 0 49.650391 9.9296875 C 48.231783 9.1422757 46.254064 8.6631619 44.533203 8.71875 z M 78.328125 19.910156 C 77.693116 19.930669 77.093474 20.024079 76.574219 20.199219 C 73.182591 21.343182 71.412734 24.679257 73.902344 26.71875 A 3.6704487 6.2181149 80.133043 0 0 73.960938 26.78125 A 3.6704487 6.2181149 80.133043 0 0 81.894531 27.373047 A 3.6704487 6.2181149 80.133043 0 0 85.064453 22.398438 L 84.65625 22.025391 C 84.545893 21.909686 84.424063 21.798015 84.291016 21.689453 L 83.941406 21.371094 A 3.6704487 6.2181149 80.133043 0 0 83.4375 21.121094 C 82.019207 20.335293 80.047029 19.854631 78.328125 19.910156 z M 55.373047 20.568359 C 54.738037 20.588872 54.140349 20.682282 53.621094 20.857422 C 50.231474 22.000707 48.462222 25.333226 50.945312 27.373047 A 3.6704487 6.2181149 80.133043 0 0 51.007812 27.439453 A 3.6704487 6.2181149 80.133043 0 0 58.939453 28.033203 A 3.6704487 6.2181149 80.133043 0 0 62.109375 23.056641 L 61.705078 22.685547 C 61.594527 22.569426 61.471292 22.458545 61.337891 22.349609 L 60.988281 22.029297 A 3.6704487 6.2181149 80.133043 0 0 60.488281 21.78125 C 59.069697 20.993963 57.093756 20.512776 55.373047 20.568359 z M 31.144531 21.228516 C 30.509522 21.249028 29.90988 21.340485 29.390625 21.515625 C 25.998997 22.659587 24.22914 25.995663 26.71875 28.035156 A 3.6704487 6.2181149 80.133043 0 0 26.777344 28.097656 A 3.6704487 6.2181149 80.133043 0 0 34.710938 28.691406 A 3.6704487 6.2181149 80.133043 0 0 37.880859 23.714844 L 37.472656 23.341797 C 37.362299 23.226092 37.240469 23.114421 37.107422 23.005859 L 36.757812 22.6875 A 3.6704487 6.2181149 80.133043 0 0 36.253906 22.4375 C 34.835613 21.651699 32.863435 21.172991 31.144531 21.228516 z M 67.488281 35.054688 C 66.853272 35.0752 66.255584 35.166657 65.736328 35.341797 C 62.329379 36.490927 60.55218 39.853777 63.091797 41.890625 A 3.6704487 6.2181149 80.133043 0 0 63.123047 41.923828 A 3.6704487 6.2181149 80.133043 0 0 71.054688 42.517578 A 3.6704487 6.2181149 80.133043 0 0 74.224609 37.541016 L 73.816406 37.167969 C 73.706049 37.052264 73.584219 36.940593 73.451172 36.832031 L 73.101562 36.513672 A 3.6704487 6.2181149 80.133043 0 0 72.603516 36.265625 C 71.184932 35.478338 69.208991 34.999104 67.488281 35.054688 z M 17.822266 35.53125 C 17.187256 35.551762 16.589568 35.645173 16.070312 35.820312 C 12.663364 36.969443 10.886164 40.332292 13.425781 42.369141 A 3.6704487 6.2181149 80.133043 0 0 13.457031 42.402344 A 3.6704487 6.2181149 80.133043 0 0 21.388672 42.994141 A 3.6704487 6.2181149 80.133043 0 0 24.558594 38.019531 L 24.150391 37.646484 C 24.040034 37.53078 23.918204 37.419109 23.785156 37.310547 L 23.435547 36.992188 A 3.6704487 6.2181149 80.133043 0 0 22.9375 36.744141 C 21.518916 35.956854 19.542975 35.475667 17.822266 35.53125 z M 43.259766 35.712891 C 42.624756 35.733403 42.025115 35.82486 41.505859 36 C 38.124914 37.140359 36.357486 40.45881 38.8125 42.5 A 3.6704487 6.2181149 80.133043 0 0 38.892578 42.583984 A 3.6704487 6.2181149 80.133043 0 0 46.824219 43.175781 A 3.6704487 6.2181149 80.133043 0 0 49.996094 38.199219 L 49.587891 37.826172 C 49.477534 37.710467 49.355704 37.598796 49.222656 37.490234 L 48.873047 37.171875 A 3.6704487 6.2181149 80.133043 0 0 48.361328 36.917969 C 46.943579 36.134889 44.97536 35.657472 43.259766 35.712891 z M 57.287109 51.513672 C 56.6521 51.534184 56.052459 51.625642 55.533203 51.800781 C 52.141045 52.944923 50.369994 56.284813 52.861328 58.324219 A 3.6704487 6.2181149 80.133043 0 0 52.919922 58.384766 A 3.6704487 6.2181149 80.133043 0 0 60.853516 58.976562 A 3.6704487 6.2181149 80.133043 0 0 64.023438 54.001953 L 63.617188 53.630859 C 63.504861 53.51287 63.380035 53.399628 63.244141 53.289062 L 62.900391 52.974609 A 3.6704487 6.2181149 80.133043 0 0 62.402344 52.726562 C 60.983681 51.938868 59.008314 51.458072 57.287109 51.513672 z "
       transform="translate(12.486047,19.551689)"
       id="path8739" />
  </g>
</svg>

<!--Created with Inkscape (http://www.inkscape.org/)--><svg xmlns:dc="http://purl.org/dc/elements/1.1/" xmlns:cc="http://creativecommons.org/ns#" xmlns:rdf="http://www.w3.org/1999/02/22-rdf-syntax-ns#" xmlns="http://www.w3.org/2000/svg" xmlns:sodipodi="http://sodipodi.sourceforge.net/DTD/sodipodi-0.dtd" xmlns:inkscape="http://www.inkscape.org/namespaces/inkscape" width="97.366165" height="98.645958" sodipodi:version="0.32" inkscape:version="0.91 r13725" sodipodi:docname="dice8.svg" inkscape:export-filename="/home/franck/Gcompris/gartoon/level8.png" inkscape:export-xdpi="8.5762272" inkscape:export-ydpi="8.5762272" inkscape:output_extension="org.inkscape.output.svg.inkscape" version="1.0"><sodipodi:namedview inkscape:document-units="px" pagecolor="#ffffff" bordercolor="#666666" borderopacity="1.0" inkscape:pageopacity="0.0" inkscape:pageshadow="2" inkscape:zoom="3.5899113" inkscape:cx="50.662467" inkscape:cy="49.296938" inkscape:current-layer="layer1" inkscape:window-width="936" inkscape:window-height="1053" inkscape:window-x="940" inkscape:window-y="0" showgrid="false" fit-margin-top="0" fit-margin-left="0" fit-margin-right="0" fit-margin-bottom="0" inkscape:window-maximized="0"/><metadata><rdf:RDF><cc:Work><dc:format>image/svg+xml</dc:format><dc:type rdf:resource="http://purl.org/dc/dcmitype/StillImage"/><dc:title/><dc:date>2015</dc:date><dc:creator><cc:Agent><dc:title>Timothée Giet</dc:title></cc:Agent></dc:creator><cc:license rdf:resource="http://creativecommons.org/licenses/by-sa/4.0/"/></cc:Work><cc:License rdf:about="http://creativecommons.org/licenses/by-sa/4.0/"><cc:permits rdf:resource="http://creativecommons.org/ns#Reproduction"/><cc:permits rdf:resource="http://creativecommons.org/ns#Distribution"/><cc:requires rdf:resource="http://creativecommons.org/ns#Notice"/><cc:requires rdf:resource="http://creativecommons.org/ns#Attribution"/><cc:permits rdf:resource="http://creativecommons.org/ns#DerivativeWorks"/><cc:requires rdf:resource="http://creativecommons.org/ns#ShareAlike"/></cc:License></rdf:RDF></metadata><g inkscape:label="Layer 1" inkscape:groupmode="layer"><path inkscape:connector-curvature="0" sodipodi:nodetypes="csscssssssssc" d="M18.747 46.113S30.444 31.372 41.407 24.7c6.804-4.141 15.95-5.873 23.923-4.69 14.38 2.13 34.676 10.227 34.676 10.227 5.705 1.632 10.451 5.042 9.668 13.387-1.341 14.297-4.117 24.915-8.1 38.096-1.696 5.615-3.953 11.622-5.595 15.807-1.916 4.886-4.42 9.223-5.99 12.689-2.414 5.322-9.216 7.96-15.213 7.89-8.856-.101-25.964-4.73-39.482-11.464-6.092-3.035-10.353-6.79-12.137-11.757-4.052-11.285-10.571-20.763-10.58-33.116-.005-6.749 2.571-10.76 6.17-15.655z" style="fill:#991919;fill-opacity:1;fill-rule:evenodd;stroke:none;stroke-width:.14504871pt;stroke-linecap:butt;stroke-linejoin:miter;stroke-opacity:1" transform="translate(-12.486 -19.552)"/><path inkscape:connector-curvature="0" sodipodi:nodetypes="csscccsss" d="M62.787 24.115c14.579 1.618 22.535 5.634 34.704 9.749 6.328 2.14 11.69 6.643 5.395 17.432l-17.44 29.892c-3.802 6.57-14.537 7.87-21.314 5.985L26.846 73.05c-6.777-1.885-13.592-11.205-9.593-17.753 5.644-9.243 14.96-18.586 23.875-26.55 5.42-4.843 14.745-5.4 21.66-4.633z" style="fill:#e82727;fill-opacity:1;fill-rule:evenodd;stroke:none" transform="translate(-12.486 -19.552)"/><path inkscape:connector-curvature="0" sodipodi:nodetypes="cscsccsss" d="M65.907 115.452c-12.305-2.333-20.49-6.927-30.113-11.257-5.309-2.389-9.694-8.027-10.904-12.464l-4.6-13.55c-2.213-6.516 1.55-6.333 8.23-3.587l36.55 13.618c5.697 1.756 10.58 5.863 10.587 12.816.003 3.186-.048 5.519-.525 9.835-.316 2.858-3.165 5.738-9.225 4.589z" style="fill:#c21919;fill-opacity:1;fill-rule:evenodd;stroke:none" transform="translate(-12.486 -19.552)"/><path inkscape:connector-curvature="0" sodipodi:nodetypes="sssssssss" d="M93.569 95.969c-1.682 3.5-3.476 8.834-5.784 13.087-3.244 5.98-9.79 7.019-9.481 2.864l.736-9.936c.514-6.933 4.224-14.656 6.36-18.188 5.808-9.602 12.94-20.286 18.184-28.759 2.065-3.335 2.505.537 1.774 3.152l-6.405 22.906c-1.21 4.33-3.949 11.886-5.384 14.874z" style="fill:#c21919;fill-opacity:1;fill-rule:evenodd;stroke:none" transform="translate(-12.486 -19.552)"/><path style="fill:#ecc9c0;fill-opacity:1;fill-rule:evenodd;stroke:none" d="M84.463 52.797a.87.87 0 0 0-.25.062 1.315 3.605 18.43 0 0-.016.002 1.315 3.605 18.43 0 0-2.209 3.54 1.315 3.605 18.43 0 0 .356 3.316l.193-.057a.954.954 0 0 0 .178-.05l.166-.05a1.315 3.605 18.43 0 0 .19-.144c.762-.526 1.661-1.766 2.01-2.916.567-1.876.324-3.782-.618-3.703zM17.46 58.479c-1.66-.044-3.018.806-2.941 2.439a4.737 2.792 33.313 0 0-.006.059 4.737 2.792 33.313 0 0 3.818 4.556 4.737 2.792 33.313 0 0 4.594-.793l.006-.392c.011-.126.012-.256.006-.391l.003-.334a4.737 2.792 33.313 0 0-.117-.396c-.387-1.582-1.667-3.44-3.06-4.147a5.454 5.454 0 0 0-2.303-.601zm33.57 12.673c-1.66-.043-3.018.807-2.941 2.44a4.737 2.792 33.313 0 0-.006.058 4.737 2.792 33.313 0 0 3.816 4.555 4.737 2.792 33.313 0 0 4.596-.79l.006-.4c.011-.123.013-.251.006-.384l.004-.334a4.737 2.792 33.313 0 0-.116-.395c-.385-1.582-1.668-3.44-3.062-4.148a5.454 5.454 0 0 0-2.303-.602zm-28.054 5.555c-1.66-.043-3.019.806-2.942 2.44a4.737 2.792 33.313 0 0-.006.058 4.737 2.792 33.313 0 0 3.817 4.555 4.737 2.792 33.313 0 0 4.595-.791l.006-.399c.011-.123.013-.251.006-.384l.004-.334a4.737 2.792 33.313 0 0-.115-.395c-.386-1.583-1.67-3.44-3.065-4.148a5.446 5.446 0 0 0-2.3-.602zm51.921 2.426a.866.866 0 0 0-.238.058c-.004.002-.007 0-.012.002a1.315 3.605 18.43 0 0-.015.002 1.315 3.605 18.43 0 0-2.21 3.541 1.315 3.605 18.43 0 0 .356 3.317l.194-.057a.954.954 0 0 0 .177-.05l.166-.05a1.315 3.605 18.43 0 0 .19-.144c.763-.526 1.662-1.766 2.01-2.916.568-1.876.325-3.782-.618-3.703zm-22.193 8.293c-1.66-.044-3.02.806-2.943 2.44a4.737 2.792 33.313 0 0-.006.058 4.737 2.792 33.313 0 0 3.818 4.556 4.737 2.792 33.313 0 0 4.596-.793l.006-.41c.01-.112.009-.229.004-.35l.006-.357a4.737 2.792 33.313 0 0-.116-.392c-.385-1.583-1.67-3.442-3.064-4.15a5.446 5.446 0 0 0-2.3-.602z"/><path style="fill:#f2dbd4;fill-opacity:1;fill-rule:evenodd;stroke:none" d="M44.533 8.719c-.635.02-1.232.112-1.752.287-3.38 1.14-5.148 4.459-2.693 6.5a3.67 6.218 80.133 0 0 .08.084 3.67 6.218 80.133 0 0 7.932.592 3.67 6.218 80.133 0 0 3.17-4.977l-.403-.37a3.984 3.984 0 0 0-.373-.34l-.346-.317a3.67 6.218 80.133 0 0-.498-.248c-1.418-.788-3.396-1.267-5.117-1.211zM78.328 19.91c-.635.02-1.235.114-1.754.29-3.391 1.143-5.161 4.48-2.672 6.519a3.67 6.218 80.133 0 0 .059.062 3.67 6.218 80.133 0 0 7.934.592 3.67 6.218 80.133 0 0 3.17-4.975l-.409-.373a3.984 3.984 0 0 0-.365-.336l-.35-.318a3.67 6.218 80.133 0 0-.504-.25c-1.418-.786-3.39-1.266-5.109-1.21zm-22.955.658c-.635.02-1.233.114-1.752.29-3.39 1.143-5.159 4.475-2.676 6.515a3.67 6.218 80.133 0 0 .063.066 3.67 6.218 80.133 0 0 7.931.594 3.67 6.218 80.133 0 0 3.17-4.976l-.404-.371a3.986 3.986 0 0 0-.367-.336l-.35-.32a3.67 6.218 80.133 0 0-.5-.249c-1.418-.787-3.394-1.268-5.115-1.213zm-24.228.66c-.635.021-1.235.112-1.754.288-3.392 1.144-5.162 4.48-2.672 6.52a3.67 6.218 80.133 0 0 .058.062 3.67 6.218 80.133 0 0 7.934.593 3.67 6.218 80.133 0 0 3.17-4.976l-.408-.373a3.984 3.984 0 0 0-.366-.336l-.35-.319a3.67 6.218 80.133 0 0-.503-.25c-1.418-.785-3.39-1.264-5.11-1.208zm36.343 13.827c-.635.02-1.232.112-1.752.287-3.407 1.149-5.184 4.512-2.644 6.549a3.67 6.218 80.133 0 0 .031.033 3.67 6.218 80.133 0 0 7.932.594 3.67 6.218 80.133 0 0 3.17-4.977l-.409-.373a3.984 3.984 0 0 0-.365-.336l-.35-.318a3.67 6.218 80.133 0 0-.497-.248c-1.42-.788-3.395-1.267-5.116-1.211zm-49.666.476c-.635.02-1.232.114-1.752.29-3.407 1.148-5.184 4.511-2.644 6.548a3.67 6.218 80.133 0 0 .031.033 3.67 6.218 80.133 0 0 7.932.592 3.67 6.218 80.133 0 0 3.17-4.974l-.409-.374a3.984 3.984 0 0 0-.365-.335l-.35-.319a3.67 6.218 80.133 0 0-.497-.248c-1.42-.787-3.395-1.268-5.116-1.213zm25.438.182c-.635.02-1.235.112-1.754.287-3.381 1.14-5.149 4.459-2.694 6.5a3.67 6.218 80.133 0 0 .08.084 3.67 6.218 80.133 0 0 7.932.592 3.67 6.218 80.133 0 0 3.172-4.977l-.408-.373a3.984 3.984 0 0 0-.365-.336l-.35-.318a3.67 6.218 80.133 0 0-.512-.254c-1.417-.783-3.386-1.26-5.101-1.205zm14.027 15.8c-.635.021-1.235.113-1.754.288-3.392 1.144-5.163 4.484-2.672 6.523a3.67 6.218 80.133 0 0 .059.06 3.67 6.218 80.133 0 0 7.934.593 3.67 6.218 80.133 0 0 3.17-4.975l-.407-.371a3.991 3.991 0 0 0-.373-.342l-.344-.314a3.67 6.218 80.133 0 0-.498-.248c-1.418-.788-3.394-1.269-5.115-1.213z"/></g></svg>
